build/assets/img/icons/check-fill.svg

<svg width="22" height="22" viewBox="0 0 22 22" fill="none" xmlns="http://www.w3.org/2000/svg">
<path d="M11 0.5C5.20156 0.5 0.5 5.20156 0.5 11C0.5 16.7984 5.20156 21.5 11 21.5C16.7984 21.5 21.5 16.7984 21.5 11C21.5 5.20156 16.7984 0.5 11 0.5ZM15.5352 7.57109L10.5992 14.4148C10.5302 14.5111 10.4393 14.5896 10.3339 14.6437C10.2286 14.6978 10.1118 14.7261 9.99336 14.7261C9.87491 14.7261 9.75816 14.6978 9.6528 14.6437C9.54743 14.5896 9.45649 14.5111 9.3875 14.4148L6.46484 10.3648C6.37578 10.2406 6.46484 10.0672 6.61719 10.0672H7.71641C7.95547 10.0672 8.18281 10.182 8.32344 10.3789L9.99219 12.6945L13.6766 7.58516C13.8172 7.39062 14.0422 7.27344 14.2836 7.27344H15.3828C15.5352 7.27344 15.6242 7.44688 15.5352 7.57109Z" fill="#5565EC"/>
</svg>

<svg width="22" height="22" fill="none" xmlns="http://www.w3.org/2000/svg"><path d="M11 .5C5.202.5.5 5.202.5 11S5.202 21.5 11 21.5 21.5 16.798 21.5 11 16.798.5 11 .5zm4.535 7.071L10.6 14.415a.745.745 0 01-1.212 0l-2.922-4.05a.188.188 0 01.152-.298h1.1c.238 0 .466.115.606.312l1.67 2.316 3.684-5.11a.75.75 0 01.607-.312h1.099c.152 0 .241.174.152.298z" fill="#5565EC"/></svg>
